X: 1350
T: An Phis Thirim
R: slip jig
M: 9/8
K: Aminor
|:c2A AEA cBA|B2G-G2B dcB|EAA-A2B cBA|e3 edc d2B|
EAA AEA c2A|B3 G2B dcB|EAA E2A cBA|e3 edc Bcd||
|:e3 a2g efg|B2d d2e dBG|eAA ABc BAG|e3 edc d2B|
eaa a2g efg|d2B B2d ecA|EAA A2B cBA|e3 edc d2B||

